X:1
T:Audivi vocem de coelo - Tallis
T:James Gibb editions
T:#
%%score [ 1 2 3 4 ]
L:1/8
Q:1/4=84
M:6/4
K:F
V:1 treble nm="Soprano" snm="S"
V:2 treble nm="Alto" snm="A"
V:3 treble-8 nm="Tenor" snm="T"
V:4 bass nm="Bass" snm="B"
V:1
"^Audivi vocem de coelo" z12 | z4!p! A8 | G4 A2 c4 BA | B4 A4 z2 A2- | %4
w: |Au-|di- vi vo- cem de|coe- lo, ve\-|
 A2 G2 (F2 ED"^Thomas Tallis\n(1505-85)" F4 |[M:6/4] E4 D4 z2 A2 | c4 B2 (A3 DFD) ||[M:4/4] C4 z4 | %8
w: * ni- en\- * * *|* tem: ve-|ni- te o\- * * *|mnes|
 z2 F2 B4 | A2 G2 F4 |[M:4/4]"^dim." EDEF G2) F2- | F2 (ED)!pp! E4- | E8 || z8 | z8 | z8 |!mf! A8 | %17
w: vir- gi-|nes sa- pi-|en\- * * * * tis\-|* si\- * mae|||||Me-|
 G4 (F3 G | A2) (B3 A) (A2- |"^dim." AG B3 A G2 |!p! A8) |!f! (!>!c8- | c4 B4) | G8 | F8 | G8- | %26
w: di- a *|* no\- * cte|||cla\-||mor||fac\-|
 G4 G4 | A8- | A8 |"^rit." A8 | A8 ||[M:4/4] z4!mf! A4- | A2 D2 (A2 G2 | F4) E4 | z8 | z4 (c4 | %36
w: * tus|est.||||Ec\-|* ce spon\- *|* sus||ve\-|
 B2 A3 G E2) | D2 z2 z4 | z2!f! d4 c2 | B4 A4 | (G2 A2 BAGB) | A8 | z4 z2!mf! A2 | (c3 =B A2 G2 | %44
w: |nit,|ec- ce|spon- sus|ve\- * * * * *|nit,|ve-||
 F2 E2 z2[Q:1/4=83] E2 |"^rall."[Q:1/4=79] A8- |[Q:1/4=75]!>(! A4[Q:1/4=73] G4)!>)! | %47
w: |||
!p![Q:1/4=72] ^F8 |] %48
w: nit.|
V:2
 z4!p! D8 | C4 D2 F4 ED | (E3 DCB,) A,2 z2 C2 | (DCDE F2 E4 F2) | D4 z2 D4 A2- | %5
w: Au-|di- vi vo- cem de|coe\- * * * lo, de|coe\- * * * * * *|lo ve- ni\-|
[M:6/4] A2 (G2 F4 ED D2- | D2 C2) D4 z2 A2 ||[M:4/4] c3 B A2 (G2- | GF F2) (E2 D2- | DC C4) =B,2 | %10
w: * en\- * * * *|* * tem: ve-|ni- te o- mnes|* * * vir\- *|* * * gi-|
[M:4/4]"^dim." C8- | C8 |!pp! C8 ||!mf! A8 | G4 F2 (A2- | AG F2 E2 D2- | D2 F3 E D2- | %17
w: nes.|||Me-|di- a no\-|||
 D2 ^C2"^dim." D4 | F8) |!p! D8 | z2!f! !>!F4 C2 | F2 (E2 F2 A2- | AGFE G3 F | E2 D4 ^C2) | %24
w: ||cte|cla- mor|fac- tus * *|||
 D2 D2 (=C2 A,2) | (G,2 C4 =B,2 | C2 E2) D4 | z2 A,2 (C2 F2- | FE D2 C2 F2- |"^rit." F2 E2) E4- | %30
w: est, fac- tus *||* * est,|fac- tus *||* * est.|
 E8 ||[M:4/4]!mf! A,3 B, (C2 D2- | DC F4) E2- | E(A, D2) C4 | z8 | z2!f! A4 G2 | F4 E4 | %37
w: |Ec- ce spon\- *|* * * sus|* ve\- * nit,||ec- ce|spon- sus,|
 z2!f! c4 B2 | A6 A2 | (F3 E FDEF | G2 F4 E2 | F4) E2!mf! A2- | A(G F2) E2 D2 | z4 z2 (G2 | %44
w: ec- ce|spon- sus|ve\- * * * * *||* nit, ec\-|* ce * spon- sus|ve\-|
 c3 =B A2 G2 |"^rall." F3 E D2 F2- |!>(! FE D4 ^C2)!>)! |!p! D8 |] %48
w: |||nit.|
V:3
 z12 | z12 | z4!p! A8 | G4 A2 c4 BA | B4 A4 z2 A2 |[M:6/4][K:treble-8] (c3 B) A8 | G4 z2 d2 f4- || %7
w: ||Au-|di- vi vo- cem de|coe- lo ve-|ni\- * en-|tem: ve- ni\-|
[M:4/4] f2 e2 e4 | d2 c4 B2 | c2 G2 A2 F2 |[M:4/4][K:treble-8]"^dim." G6 (A2- | A2 G2) G4- | %12
w: * te o-|mnes vir- gi-|nes sa- pi- en-|tis- si\-|* * mae.|
!pp! G8 || z8 | z8 | z8 | z8 | z4!mf! d4- | d4"^dim." c4 | B2 (d3 c B2) |!p! A4 z2!f! (!>!A2- | %21
w: |||||Me\-|* di-|a no\- * *|cte cla\-|
 A2 G2 A2) F2 | z2 F2 (B2 d2- | dcBA) G4 | z2 B2 (A2 F2) | (c2 e4 d2- | dG c4 =B2) | c4 z2 A2 | %28
w: * * * mor|fac- tus *|* * * * est,|fac- tus *|||est, fac-|
 (c2 f3 e d2- |"^rit." d2 ^c=B) c4- | c8 ||[M:4/4][K:treble-8] z8 | z8 | z4!mf! A3 B | %34
w: tus * * *|* * * est.||||Ec- ce|
 c2 d2 (f2 e2- | ed d3 e c2) | d4 z4 |!f! f4 e2 (e2- | ed f2 e4 | d6 A2 | d2 c4 B2 | c2 d2 c2) A2 | %42
w: spon- sus ve\- *||nit,|ec- ce spon\-||||* * * sus|
 z2!mf! (c2 =B2 A2) | (e3 d c2 =B2 | z2 A2 c4 |"^rall." F2 c2 A2 d2 |!>(! c2 F2 G4)!>)! |!p! A8 |] %48
w: ve\- * *|||||nit.|
V:4
 z12 | z12 | z12 | z12 | z4!p! D,8 |[M:6/4] C,4 D,2 F,4 E,D, | E,4 D,4 z2 D,2 ||[M:4/4] A,3 B, C4 | %8
w: ||||Au-|di- vi vo- cem de|coe- lo ve-|ni- te o-|
 B,2 A,2 G,4 | F,2 E,2 D,4 |[M:4/4]"^dim." C,3 (D, E,2) F,2 | C,8- |!pp! C,8 || z8 | z4!mf! A,4- | %15
w: mnes vir- gi-|nes sa- pi-|en- tis\- * si-|mae.|||Me\-|
 A,4 G,4 | F,2 (A,3 G, F,2 | E,4"^dim." D,4- | D,4 F,4 | G,8) |!p! D,4 z2!f! !>!F,2- | %21
w: * di-|a no\- * *||||cte cla|
 F,2 C,2 F,2 (C2- | CB, A,2 G,4- | G,2 F,2 E,4) | D,4 z2 F,2 | E,2 C,2 (G,3 F, | E,2 C,2 G,4 | %27
w: * mor fac- tus|||est, cla-|mor fac- tus *||
 F,6 D,2 | A,2 F,2 A,2 D,2) |"^rit." A,8- | A,8 ||[M:4/4] z8 | z8 | z4 z2!mf! A,2- | %34
w: ||est.||||Ec\-|
 A,2 D,2 A,2 G,2 | (F,4 E,4) | D,4!f! C4 | B,2 A,4 G,2 | (F,2 D,2 A,4 | D,2 D4 C2 | B,2 A,2 G,4 | %41
w: * ce spon- sus|ve\- *|nit, ec-|ce spon- sus|ve\- * *|||
 F,2 D,2 A,2 C2- | C=B, A,2 G,2!mf! F,2) | E,4 z2 (E,2 | A,3 G, F,2 E,2 |"^rall." D,2 C,2 F,2 D,2 | %46
w: ||nit, ve\-|||
!>(! A,2 D,2 E,4)!>)! |!p! D,8 |] %48
w: |nit.|

